!!!COM:	Bach, Johann Sebastian
!!!OMV:	Aus tiefer Not schrei ich zu dir
!!!OTL:	Aus tiefer Not schrei ich zu dir
**kern	**fb	**kern	**kern	**kern	**kern
*part5	*part5	*part4	*part3	*part2	*part1
*staff5	*	*staff4	*staff3	*staff2	*staff1
*I"Contrabass	*	*I"Voice	*I"Voice	*I"Voice	*I"Voice
*I'Cb.	*	*I'V	*I'V	*I'V	*I'V
*clefF4	*	*clefF4	*clefGv2	*clefG2	*clefG2
*Trd0c0	*	*	*	*	*
*k[]	*	*k[]	*k[]	*k[]	*k[]
*M4/4	*	*M4/4	*M4/4	*M4/4	*M4/4
=	=	=	=	=	=
2D	6 #4| 2	2D	2G#X	2e	2b
4C	6	4C	4A	4e	4e
4BB	#6\	4BB	4d	4g#X	4b
=3	=3	=3	=3	=3	=3
4AA	.	4AA	4e	4a	4cc
4BB	8 6	4BB	4d	8gnL	8bL
.	7 #5|	.	.	8f#XJ	8aJ
8CL	5	8CL	8eL	4e	4g
8BBJ	.	8BBJ	8dJ	.	.
4AA	#6\	4AA	4c	4f#	4a
=4	=4	=4	=4	=4	=4
2E;	#	2E;	2B;	2g#X;	2b;
2E	#	2E	2e	2g#	2b
=5	=5	=5	=5	=5	=5
4A	.	4A	4e	4a	4cc
8GL	7 5	8GL	4f	4b	4dd
8FJ	.	8FJ	.	.	.
4E	6	4E	4g	4cc	8ccL
.	.	.	.	.	8bJ
4F	.	4F	4c	4f	4a
=6	=6	=6	=6	=6	=6
4C	8	4C	8cL	4e	4g
.	.	.	8BJ	.	.
4D	7	4D	4A	8dL	4f
.	.	.	.	8cJ	.
2E;	#	2E;	2G#X;	2B;	2e;
=7:|!	=7:|!	=7:|!	=7:|!	=7:|!	=7:|!
2c	.	2c	2A	2e	2a
4B	.	4B	4B	4d	4gn
4A	.	4A	4c	8eL	4cc
.	.	.	.	8f#XJ	.
=8	=8	=8	=8	=8	=8
!!linebreak:original
4G	.	4G	4d	4g	4b
8FL	6	8FnL	8dL	4a	4a
8EJ	.	8EJ	8eJ	.	.
4D	6	4D	4f	8bL	8ddL
.	5	.	.	8aJ	8ccJ
4E	#	4E	4B	4g#X	4b
=9	=9	=9	=9	=9	=9
2AA;	.	2AA;	2c;	2e;	2a;
2A	.	2A	2e	2a	2cc
=10	=10	=10	=10	=10	=10
4E	.	4E	4e	4g	4b
8DL	7 4 2	8DL	4e	4g	4cc
8CJ	.	8CJ	.	.	.
4BB	6	4BB	4d	8gL	4dd
.	5	.	.	8fJ	.
4C	.	4C	4c	4e	4g
=11	=11	=11	=11	=11	=11
4D	6 #	4D	8F#X	4d	4b
.	4	.	4G	.	.
4D	5 4	4D	.	4c	4a
.	#	.	8F#	.	.
2GG;	.	2GG;	2G;	2B;	2g;
=12	=12	=12	=12	=12	=12
2C	.	2C	2G	2e	2g
4AA	.	4AA	4A	4e	4cc
4E	8 #	4E	4G#X	8eL	4b
.	7	.	.	8dJ	.
=13	=13	=13	=13	=13	=13
4F	.	4F	4A	4c	4a
4C	.	4C	4G	4c	4e
4BB-X	6	4BB-X	4G	[2d	4g
4AA	6 4	4AA	4A	.	4f
=14	=14	=14	=14	=14	=14
4GG#X	6 5	4GG#X	4B	4d]	1e;
4AA	.	4AA	4A	4c	.
2E;	#	2E;	2G#X;	2B;	.
=||	=||	=||	=||	=||	=||
*-	*-	*-	*-	*-	*-
!!!system-decoration: s1,s2,s3,s4,s5
